packages/swarm-icons/src/icons/large/Settings.svg

<svg xmlns="http://www.w3.org/2000/svg" width="28" height="28" viewBox="0 0 28 28">
  <path fill="#212121" d="M22.7307042,10.9375 L23,10.9375 C24.6568542,10.9375 26,12.2806458 26,13.9375 L26,14.0625 C26,15.7193542 24.6568542,17.0625 23,17.0625 L22.7307042,17.0625 C22.6176086,17.384935 22.4867371,17.7004561 22.3387969,18.0077679 L22.5294755,18.1984465 C23.7010484,19.3700194 23.7010484,21.2695143 22.5294755,22.4410872 L22.4410872,22.5294755 C21.2695143,23.7010484 19.3700194,23.7010484 18.1984465,22.5294755 L18.0077679,22.3387969 C17.7004561,22.4867371 17.384935,22.6176086 17.0625,22.7307042 L17.0625,23 C17.0625,24.6568542 15.7193542,26 14.0625,26 L13.9375,26 C12.2806458,26 10.9375,24.6568542 10.9375,23 L10.9375,22.7307042 C10.615065,22.6176086 10.2995439,22.4867371 9.99223215,22.3387969 L9.80155349,22.5294755 C8.62998061,23.7010484 6.73048567,23.7010484 5.5589128,22.5294755 L5.47052445,22.4410872 C4.29895158,21.2695143 4.29895158,19.3700194 5.47052445,18.1984465 L5.66120311,18.0077679 C5.5132629,17.7004561 5.38239137,17.384935 5.26929579,17.0625 L5,17.0625 C3.34314575,17.0625 2,15.7193542 2,14.0625 L2,13.9375 C2,12.2806458 3.34314575,10.9375 5,10.9375 L5.26929579,10.9375 C5.38239137,10.615065 5.5132629,10.2995439 5.66120311,9.99223215 L5.47052445,9.80155349 C4.29895158,8.62998061 4.29895158,6.73048567 5.47052445,5.5589128 L5.5589128,5.47052445 C6.73048567,4.29895158 8.62998061,4.29895158 9.80155349,5.47052445 L9.99223215,5.66120311 C10.2995439,5.5132629 10.615065,5.38239137 10.9375,5.26929579 L10.9375,5 C10.9375,3.34314575 12.2806458,2 13.9375,2 L14.0625,2 C15.7193542,2 17.0625,3.34314575 17.0625,5 L17.0625,5.26929579 C17.384935,5.38239137 17.7004561,5.5132629 18.0077679,5.66120311 L18.1984465,5.47052445 C19.3700194,4.29895158 21.2695143,4.29895158 22.4410872,5.47052445 L22.5294755,5.5589128 C23.7010484,6.73048567 23.7010484,8.62998061 22.5294755,9.80155349 L22.3387969,9.99223215 C22.4867371,10.2995439 22.6176086,10.615065 22.7307042,10.9375 Z M20.4006413,9.10196056 L21.115262,8.38733992 C21.5057863,7.99681563 21.5057863,7.36365065 21.115262,6.97312636 L21.0268736,6.88473801 C20.6363493,6.49421372 20.0031844,6.49421372 19.6126601,6.88473801 L18.8980394,7.59935865 C18.5753407,7.92205739 18.0751061,7.98534527 17.6822082,7.75318125 C17.0995412,7.40888243 16.4711805,7.14768983 15.8132415,6.97834806 C15.3713598,6.86461556 15.0625,6.46619449 15.0625,6.00991106 L15.0625,5 C15.0625,4.44771525 14.6147847,4 14.0625,4 L13.9375,4 C13.3852153,4 12.9375,4.44771525 12.9375,5 L12.9375,6.00991106 C12.9375,6.46619449 12.6286402,6.86461556 12.1867585,6.97834806 C11.5288195,7.14768983 10.9004588,7.40888243 10.3177918,7.75318125 C9.92489386,7.98534527 9.4246593,7.92205739 9.10196056,7.59935865 L8.38733992,6.88473801 C7.99681563,6.49421372 7.36365065,6.49421372 6.97312636,6.88473801 L6.88473801,6.97312636 C6.49421372,7.36365065 6.49421372,7.99681563 6.88473801,8.38733992 L7.59935865,9.10196056 C7.92205739,9.4246593 7.98534527,9.92489386 7.75318125,10.3177918 C7.40888243,10.9004588 7.14768983,11.5288195 6.97834806,12.1867585 C6.86461556,12.6286402 6.46619449,12.9375 6.00991106,12.9375 L5,12.9375 C4.44771525,12.9375 4,13.3852153 4,13.9375 L4,14.0625 C4,14.6147847 4.44771525,15.0625 5,15.0625 L6.00991106,15.0625 C6.46619449,15.0625 6.86461556,15.3713598 6.97834806,15.8132415 C7.14768983,16.4711805 7.40888243,17.0995412 7.75318125,17.6822082 C7.98534527,18.0751061 7.92205739,18.5753407 7.59935865,18.8980394 L6.88473801,19.6126601 C6.49421372,20.0031844 6.49421372,20.6363493 6.88473801,21.0268736 L6.97312636,21.115262 C7.36365065,21.5057863 7.99681563,21.5057863 8.38733992,21.115262 L9.10196056,20.4006413 C9.4246593,20.0779426 9.92489386,20.0146547 10.3177918,20.2468188 C10.9004588,20.5911176 11.5288195,20.8523102 12.1867585,21.0216519 C12.6286402,21.1353844 12.9375,21.5338055 12.9375,21.9900889 L12.9375,23 C12.9375,23.5522847 13.3852153,24 13.9375,24 L14.0625,24 C14.6147847,24 15.0625,23.5522847 15.0625,23 L15.0625,21.9900889 C15.0625,21.5338055 15.3713598,21.1353844 15.8132415,21.0216519 C16.4711805,20.8523102 17.0995412,20.5911176 17.6822082,20.2468188 C18.0751061,20.0146547 18.5753407,20.0779426 18.8980394,20.4006413 L19.6126601,21.115262 C20.0031844,21.5057863 20.6363493,21.5057863 21.0268736,21.115262 L21.115262,21.0268736 C21.5057863,20.6363493 21.5057863,20.0031844 21.115262,19.6126601 L20.4006413,18.8980394 C20.0779426,18.5753407 20.0146547,18.0751061 20.2468188,17.6822082 C20.5911176,17.0995412 20.8523102,16.4711805 21.0216519,15.8132415 C21.1353844,15.3713598 21.5338055,15.0625 21.9900889,15.0625 L23,15.0625 C23.5522847,15.0625 24,14.6147847 24,14.0625 L24,13.9375 C24,13.3852153 23.5522847,12.9375 23,12.9375 L21.9900889,12.9375 C21.5338055,12.9375 21.1353844,12.6286402 21.0216519,12.1867585 C20.8523102,11.5288195 20.5911176,10.9004588 20.2468188,10.3177918 C20.0146547,9.92489386 20.0779426,9.4246593 20.4006413,9.10196056 Z M14,19.3541667 C11.0429754,19.3541667 8.64583333,16.9570246 8.64583333,14 C8.64583333,11.0429754 11.0429754,8.64583333 14,8.64583333 C16.9570246,8.64583333 19.3541667,11.0429754 19.3541667,14 C19.3541667,16.9570246 16.9570246,19.3541667 14,19.3541667 Z M14,17.3541667 C15.8524551,17.3541667 17.3541667,15.8524551 17.3541667,14 C17.3541667,12.1475449 15.8524551,10.6458333 14,10.6458333 C12.1475449,10.6458333 10.6458333,12.1475449 10.6458333,14 C10.6458333,15.8524551 12.1475449,17.3541667 14,17.3541667 Z"/>
</svg>

<svg xmlns="http://www.w3.org/2000/svg" width="28" height="28"><path fill="#212121" d="M22.73 10.938H23a3 3 0 013 3v.124a3 3 0 01-3 3h-.27a9.197 9.197 0 01-.391.946l.19.19a3 3 0 010 4.243l-.088.088a3 3 0 01-4.243 0l-.19-.19a9.197 9.197 0 01-.945.392V23a3 3 0 01-3 3h-.126a3 3 0 01-3-3v-.27a9.197 9.197 0 01-.945-.391l-.19.19a3 3 0 01-4.243 0l-.088-.088a3 3 0 010-4.243l.19-.19a9.197 9.197 0 01-.392-.945H5a3 3 0 01-3-3v-.126a3 3 0 013-3h.27c.112-.322.243-.637.391-.945l-.19-.19a3 3 0 010-4.243l.088-.088a3 3 0 014.243 0l.19.19c.308-.148.623-.279.945-.392V5a3 3 0 013-3h.126a3 3 0 013 3v.27c.322.112.637.243.945.391l.19-.19a3 3 0 014.243 0l.088.088a3 3 0 010 4.243l-.19.19c.148.308.279.623.392.945zM20.4 9.101l.715-.715a1 1 0 000-1.414l-.088-.088a1 1 0 00-1.414 0l-.715.714a1 1 0 01-1.216.154 7.2 7.2 0 00-1.869-.775 1 1 0 01-.75-.968V5a1 1 0 00-1-1h-.126a1 1 0 00-1 1v1.01a1 1 0 01-.75.968 7.2 7.2 0 00-1.87.775A1 1 0 019.103 7.6l-.715-.714a1 1 0 00-1.414 0l-.088.088a1 1 0 000 1.414l.714.715a1 1 0 01.154 1.216 7.2 7.2 0 00-.775 1.869 1 1 0 01-.968.75H5a1 1 0 00-1 1v.126a1 1 0 001 1h1.01a1 1 0 01.968.75 7.2 7.2 0 00.775 1.87 1 1 0 01-.154 1.215l-.714.715a1 1 0 000 1.414l.088.088a1 1 0 001.414 0l.715-.714a1 1 0 011.216-.154 7.2 7.2 0 001.869.775 1 1 0 01.75.968V23a1 1 0 001 1h.126a1 1 0 001-1v-1.01a1 1 0 01.75-.968 7.2 7.2 0 001.87-.775 1 1 0 011.215.154l.715.714a1 1 0 001.414 0l.088-.088a1 1 0 000-1.414l-.714-.715a1 1 0 01-.154-1.216 7.2 7.2 0 00.775-1.869 1 1 0 01.968-.75H23a1 1 0 001-1v-.126a1 1 0 00-1-1h-1.01a1 1 0 01-.968-.75 7.2 7.2 0 00-.775-1.87 1 1 0 01.154-1.215zM14 19.354a5.354 5.354 0 110-10.708 5.354 5.354 0 010 10.708zm0-2a3.354 3.354 0 100-6.708 3.354 3.354 0 000 6.708z"/></svg>
